Newaita-dark/actions/16/gnumeric-object-button.svg

<svg height="16" viewBox="0 0 16 16" width="16" xmlns="http://www.w3.org/2000/svg"><path d="m2.644531 3.433594c-.730469 0-1.320312.589844-1.320312 1.320312v6.617188c0 .734375.589843 1.324218 1.320312 1.324218h10.585938c.734375 0 1.324219-.589843 1.324219-1.324218v-6.617188c0-.730468-.589844-1.320312-1.324219-1.320312zm1.226563 1.320312h1.628906l1.773438 6.617188h-1.632813zm2.3125 0h1.632812l1.769532 6.617188h-1.628907zm2.316406 0h1.628906l1.773438 6.617188h-1.628906zm2.316406 0h1.753906c.363282 0 .660157.296875.660157.664063v5.292969c0 .359374-.285157.648437-.644531.660156zm-7.628906.011719 1.769531 6.605469h-1.648437c-.367188 0-.664063-.296875-.664063-.660156v-5.292969c0-.328125.234375-.59375.542969-.652344zm0 0" fill="#e0e0e0"/></svg>

<?xml version="1.0" encoding="UTF-8"?>
<svg xmlns="http://www.w3.org/2000/svg" xmlns:xlink="http://www.w3.org/1999/xlink" width="16px" height="16px" viewBox="0 0 16 16" version="1.1">
<g id="surface1">
<path style=" stroke:none;fill-rule:nonzero;fill:rgb(87.843138%,87.843138%,87.843138%);fill-opacity:1;" d="M 2.644531 3.433594 C 1.914062 3.433594 1.324219 4.023438 1.324219 4.753906 L 1.324219 11.371094 C 1.324219 12.105469 1.914062 12.695312 2.644531 12.695312 L 13.230469 12.695312 C 13.964844 12.695312 14.554688 12.105469 14.554688 11.371094 L 14.554688 4.753906 C 14.554688 4.023438 13.964844 3.433594 13.230469 3.433594 Z M 3.871094 4.753906 L 5.5 4.753906 L 7.273438 11.371094 L 5.640625 11.371094 Z M 6.183594 4.753906 L 7.816406 4.753906 L 9.585938 11.371094 L 7.957031 11.371094 Z M 8.5 4.753906 L 10.128906 4.753906 L 11.902344 11.371094 L 10.273438 11.371094 Z M 10.816406 4.753906 L 12.570312 4.753906 C 12.933594 4.753906 13.230469 5.050781 13.230469 5.417969 L 13.230469 10.710938 C 13.230469 11.070312 12.945312 11.359375 12.585938 11.371094 Z M 3.1875 4.765625 L 4.957031 11.371094 L 3.308594 11.371094 C 2.941406 11.371094 2.644531 11.074219 2.644531 10.710938 L 2.644531 5.417969 C 2.644531 5.089844 2.878906 4.824219 3.1875 4.765625 Z M 3.1875 4.765625 "/>
</g>
</svg>
